!!!OTL: DIE TRAUBEN DIE WIR SCHNEIDEN
!!!ARE: Europa, Mitteleuropa, Deutschland, Rheinland, Bonn, Kessenich
!!!SCT: E1557
!!!YEM: Copyright 1995, estate of Helmut Schaffrath.
**kern
*ICvox
*Ivox
*M3/4
*k[f#c#g#]
*A:
{8e
=1
4a
4a
8b
8a
=2
4dd
8dd}
{8b
8cc#
8dd
=3
4ee
8dd
8b
8cc#
8dd
=4
4ee
4dd
8r}
{8dd
=5
4cc#
4ee
8ee
8ee
=6
4ff#
8dd}
{8aa
8gg#
8ff#
=7
8ee
8dd
4cc#
4a}
=8
{8.b
16cc#
8dd
8cc#
8dd
8cc#
=9
4b
4a
8r}
==
!!!AGN: Staende -, Bauern - Lied, Winzerin
!!!ONB: ESAC (Essen Associative Code) Database: ERK3
!!!AMT: simple triple
!!!AIN: vox
!!!EED: Helmut Schaffrath
!!!EEV: 1.0
*-
